X:1
T:Sing a Song unto the Lord
T:Sing a Song unto the Lord
T:John B. Vaughan
T:Eulalie Mewbourne, 1908
T:Public Domain Courtesy of the Cyber Hymnal™
T:Public Domain Courtesy of the Cyber Hymnal™
C:John B. Vaughan
Z:Public Domain
Z:Courtesy of the Cyber Hymnal™
%%score ( 1 2 ) ( 3 4 )
L:1/8
Q:1/4=90
M:3/4
K:G
V:1 treble 
V:2 treble 
V:3 bass 
V:4 bass 
V:1
 DD | [DG]3 [DG] (G/F/)G | (z F F2) dc x2 | B3 [EA] [DG][DF] | (z E D2) DD | [DG]3 [DG] (G/F/)G | %6
w: 1.~Sing a|song un- to * the|* * Lord, Praise|* and mag- ni-|* * fy His|name; Je- sus’ * blood|
w: 2.~God the|mer- ci- ful * and|* * true Gave|* His Son to|* * die for|you; He will * keep|
w: 3.~Je- sus,|once for sin- * ners|* * slain, Peace|* un- to our|* * souls did|bring; Sing, oh! * sing,|
 (z F F2) dc x2 | B3 [EA] [DG][DF] | (z E D2) ||"^Refrain" DD | d3 [Gc] [GB][DG] | [GB][FA] G2 DD | %12
w: * * was shed|* for me When||* the|Lamb of God was|slain. * * * *|
w: * * till life|* is thro’, If||* you|love His will to|do. Sing, oh! sing a|
w: * * ye ran-|* somed, sing Make||* the|hal- le- lu- jahs|ring. * * * *|
 d3 [Gc] [GB][DG] | [GB][FA] G2 DD | G3 [DG] (G/E/)[DG] | A4 dc | B3 [EA] [DG][DF] | G4 |] %18
w: ||||||
w: song of Je- sus’|love, Sing, oh! sing of|Him who reigns * a-|bove; Sing, my|soul, a- dore His|name,|
w: ||||||
V:2
 DD | x4 D x | [DF]4 x4 | (GG G) x3 | ([DG]4 D)D | x4 D x | [FA]4 x4 | (GG G) x3 | [DG]4 || x2 | %10
 (G>G G) x3 | x2 G2 x2 | (G>G G) x3 | x2 G2 x2 | (D>D D)D x2 | (F>F F2) x2 | (G>G G) x3 | %17
 (DE D2) |] %18
V:3
 [G,B,][G,B,] | [G,B,]3 [G,B,] (B,/A,/)[G,B,] | ([CD-] D3) C2 z2 | %3
w: |||
 [G,D][G,D] [G,D][C,C] [D,B,][D,A,] | (CC C2) [G,B,][G,B,] | [G,B,]3 [G,B,] (B,/A,/)[G,B,] | %6
w: |||
 ([CD-] D3) C2 z2 | [G,D][G,D] [G,D][C,C] [D,B,][D,A,] | (CC C2) || z2 | %10
w: ||||
 [G,B,]>[G,B,] [G,B,][G,E] [G,D][G,B,] | [G,D][D,C] [G,,G,B,]2 z2 | %12
w: Sing, oh! sing a song of|Je- sus’ love,|
 [G,B,]>[G,B,] [G,B,][G,E] [G,D][G,C] | [G,D][D,C] [G,,G,B,]2 z2 | %14
w: Sing, oh! sing of Him who|reigns a- bove;|
 [G,B,]>[G,B,] [G,B,][G,B,] (B,/A,/)[G,B,] | [D,D]>[D,D] [D,D]2 z2 | %16
w: Sing, my soul, a- dore * His|bless- èd name,|
 [G,D]>[G,D] [G,D][C,C] [D,B,][D,A,] | B,C B,2 |] %18
w: * * * * * yes,|back a- gain.|
V:4
 x2 | x4 G, x | D,4 C x3 | x6 | [G,,G,B,]4 x2 | x4 G, x | D,4 C x3 | x6 | [G,,G,B,]4 || x2 | x6 | %11
 x6 | x6 | x6 | x4 G, x | x6 | x6 | [G,,G,]4 |] %18

